X:85
T:Laird of Brodie, The
T:Tighearna Bhrodhi
R:Slow Strathspey
S:Simon Fraser Collection
N:No.178
O:Scottish
M:C
L:1/8
Q:1/4=120
K:D
F||D>E [DF][DF] D3F|D>FA>F E2 DB,|D>E [DF][DF] D>E F<d|A>FF>D E2 (DB,)|
D>E [DF][DF] D3F|D<d d>A [G3B3] (A/4B/4c/)|d>ef>A B>cd e/4d/4c/4B/4|
A>FF>A E2 DB,:|
d>c d<f B>cd>e|D<d d>A [G3B3] (A/4B/4c/)|d>ef>d B>cd (e/4d/4c/4B/4)|
A>FF>D E2 DB,|d>c d<f B>cd>e|D<d d>A [G3B3]g|f>ed>c B>c d (e/4d/4c/4B/4)
|
A<F F>A E2 (DB,)||

